X: 27459
T: Molly From Longford
R: slide
M: 12/8
K: Eminor
G2E EDE G2E D2E|G2E EDE A2c B2A|G2E EDE G2E D2B|cBA B2G A2c B2A|
G2E EDE G2E D2E|G2E EDE A2c B2A|G2E EDE G2E D2B|cBA B2G A3A2d||
Bcd e2d B2e e2d|cBA B2G A2G E2G|Bcd e2d B2e e2d|cBA B2G A3A2d|
Bcd e2d B2e e2d|cBA B2G A2G E2G|Bcd e2d efe e2d|c2A B2G A2c B2A||

